Catalina-dark/status/24/battery-low-charging.svg

<svg width="24" height="24" enable-background="new" version="1.1" xmlns="http://www.w3.org/2000/svg">
<path d="m2.5 5c-2 0-2.5 0.5-2.5 2.5v8c0 2 0.5 2.5 2.5 2.5h5.5v-1h-5.5c-1.5 0-1.5 0-1.5-1.5v-8c0-1.5 0-1.5 1.5-1.5h6l0.5-1zm8 0-3.5 7.5h4l-1 5.5h0.5l3.5-7.5h-4l1-5.5zm2 0v1h6c1.5 0 1.5 0 1.5 1.5v8c0 1.5 0 1.5-1.5 1.5h-6l-0.5 1h7c1.5 0 2-0.5 2-2.5v-8c0-2-0.5-2.5-2-2.5zm-10 2.5v8h6l0.5-1.5h-4.5l3-6.5zm10 0-0.5 1.5h4.5l-3 6.5h5v-8zm9.5 1.5v5c2.5 0 2.5-5 0-5z" clip-rule="evenodd" fill="#202020" fill-rule="evenodd" stroke-linejoin="round" stroke-miterlimit="1.4142" stroke-width="1.1667"/>
</svg>

<?xml version="1.0" encoding="UTF-8" standalone="no"?>
<!-- Created with Inkscape (http://www.inkscape.org/) -->

<svg
   xmlns:dc="http://purl.org/dc/elements/1.1/"
   xmlns:cc="http://creativecommons.org/ns#"
   xmlns:rdf="http://www.w3.org/1999/02/22-rdf-syntax-ns#"
   xmlns:svg="http://www.w3.org/2000/svg"
   xmlns="http://www.w3.org/2000/svg"
   xmlns:xlink="http://www.w3.org/1999/xlink"
   xmlns:sodipodi="http://sodipodi.sourceforge.net/DTD/sodipodi-0.dtd"
   xmlns:inkscape="http://www.inkscape.org/namespaces/inkscape"
   id="svg7384"
   style="enable-background:new"
   height="24"
   width="24"
   version="1.1"
   inkscape:version="0.92.4 5da689c313, 2019-01-14"
   sodipodi:docname="battery-020-charging.svg">
  <sodipodi:namedview
     pagecolor="#a1a1a1"
     bordercolor="#666666"
     borderopacity="1"
     objecttolerance="10"
     gridtolerance="10"
     guidetolerance="10"
     inkscape:pageopacity="0"
     inkscape:pageshadow="2"
     inkscape:window-width="1920"
     inkscape:window-height="1027"
     id="namedview11"
     showgrid="true"
     inkscape:zoom="11.313709"
     inkscape:cx="11.193083"
     inkscape:cy="9.5484783"
     inkscape:window-x="0"
     inkscape:window-y="30"
     inkscape:window-maximized="1"
     inkscape:current-layer="svg7384">
    <inkscape:grid
       type="xygrid"
       id="grid843"
       spacingx="0.5"
       spacingy="0.5" />
  </sodipodi:namedview>
  <metadata
     id="metadata90">
    <rdf:RDF>
      <cc:Work
         rdf:about="">
        <dc:format>image/svg+xml</dc:format>
        <dc:type
           rdf:resource="http://purl.org/dc/dcmitype/StillImage" />
        <dc:title>Paper Symbolic Icon Theme</dc:title>
      </cc:Work>
    </rdf:RDF>
  </metadata>
  <title
     id="title8473">Paper Symbolic Icon Theme</title>
  <defs
     id="defs7386">
    <filter
       id="filter7554"
       style="color-interpolation-filters:sRGB">
      <feBlend
         id="feBlend7556"
         in2="BackgroundImage"
         mode="darken" />
    </filter>
    <filter
       style="color-interpolation-filters:sRGB"
       id="filter7554-5">
      <feBlend
         mode="darken"
         in2="BackgroundImage"
         id="feBlend7556-4" />
    </filter>
    <filter
       id="filter7554-6"
       style="color-interpolation-filters:sRGB">
      <feBlend
         mode="darken"
         in2="BackgroundImage"
         id="feBlend7556-6" />
    </filter>
    <linearGradient
       x1="8.9254236"
       y1="5.9997859"
       x2="8.9254236"
       y2="19"
       id="linearGradient2868"
       xlink:href="#linearGradient3678"
       gradientUnits="userSpaceOnUse"
       gradientTransform="translate(-1,-2)" />
    <linearGradient
       id="linearGradient3678">
      <stop
         id="stop3680"
         style="stop-color:#ffffff;stop-opacity:1"
         offset="0" />
      <stop
         id="stop3682"
         style="stop-color:#e6e6e6;stop-opacity:1"
         offset="1" />
    </linearGradient>
    <linearGradient
       x1="9"
       y1="3"
       x2="9"
       y2="21"
       id="linearGradient2393"
       xlink:href="#linearGradient3678"
       gradientUnits="userSpaceOnUse"
       gradientTransform="translate(-2,-1)" />
    <linearGradient
       gradientTransform="translate(-1.0001235,-5)"
       gradientUnits="userSpaceOnUse"
       xlink:href="#linearGradient3587-6-5-3"
       id="linearGradient2398"
       y2="21"
       x2="14"
       y1="3"
       x1="14" />
    <linearGradient
       id="linearGradient3587-6-5-3">
      <stop
         offset="0"
         style="stop-color:#000000;stop-opacity:1"
         id="stop3589-9-2-0" />
      <stop
         offset="1"
         style="stop-color:#363636;stop-opacity:1"
         id="stop3591-7-4-7" />
    </linearGradient>
    <linearGradient
       gradientTransform="translate(-52.096803,-11.363826)"
       gradientUnits="userSpaceOnUse"
       xlink:href="#linearGradient3587-6-5-3"
       id="linearGradient2395"
       y2="27.363825"
       x2="66.09668"
       y1="9.3638258"
       x1="66.09668" />
    <linearGradient
       gradientUnits="userSpaceOnUse"
       xlink:href="#linearGradient3587-6-5-3"
       id="linearGradient7390"
       y2="13.496136"
       x2="4.9554448"
       y1="2.6841583"
       x1="4.9554448" />
    <linearGradient
       gradientUnits="userSpaceOnUse"
       xlink:href="#linearGradient3587-6-5-3"
       id="linearGradient7392"
       y2="11.649005"
       x2="7.9109159"
       y1="4.5762329"
       x1="7.9109159" />
    <linearGradient
       gradientUnits="userSpaceOnUse"
       xlink:href="#linearGradient3587-6-5-3"
       id="linearGradient7394"
       y2="13.317288"
       x2="10.186814"
       y1="2.7742527"
       x1="10.186814" />
    <linearGradient
       gradientUnits="userSpaceOnUse"
       xlink:href="#linearGradient3587-6-5-3"
       id="linearGradient7396"
       y2="15.183488"
       x2="13.917011"
       y1="0.88217813"
       x1="13.917011" />
    <linearGradient
       id="linearGradient5263">
      <stop
         offset="0"
         style="stop-color:#a0d5ff;stop-opacity:1"
         id="stop5265" />
      <stop
         offset="1"
         style="stop-color:#a0d5ff;stop-opacity:1"
         id="stop5267" />
    </linearGradient>
    <filter
       style="color-interpolation-filters:sRGB"
       id="filter7554-7">
      <feBlend
         mode="darken"
         in2="BackgroundImage"
         id="feBlend7556-0" />
    </filter>
    <filter
       style="color-interpolation-filters:sRGB"
       id="filter7554-35">
      <feBlend
         mode="darken"
         in2="BackgroundImage"
         id="feBlend7556-35" />
    </filter>
    <filter
       id="filter7554-5-9"
       style="color-interpolation-filters:sRGB">
      <feBlend
         id="feBlend7556-4-5"
         in2="BackgroundImage"
         mode="darken" />
    </filter>
    <filter
       style="color-interpolation-filters:sRGB"
       id="filter7554-6-3">
      <feBlend
         id="feBlend7556-6-2"
         in2="BackgroundImage"
         mode="darken" />
    </filter>
    <filter
       id="filter7554-2"
       style="color-interpolation-filters:sRGB">
      <feBlend
         id="feBlend7556-9"
         in2="BackgroundImage"
         mode="darken" />
    </filter>
    <filter
       id="filter7554-29"
       style="color-interpolation-filters:sRGB">
      <feBlend
         id="feBlend7556-3"
         in2="BackgroundImage"
         mode="darken" />
    </filter>
    <filter
       id="filter7554-0"
       style="color-interpolation-filters:sRGB">
      <feBlend
         id="feBlend7556-5"
         in2="BackgroundImage"
         mode="darken" />
    </filter>
    <filter
       id="filter7554-3"
       style="color-interpolation-filters:sRGB">
      <feBlend
         id="feBlend7556-48"
         in2="BackgroundImage"
         mode="darken" />
    </filter>
    <filter
       style="color-interpolation-filters:sRGB"
       id="filter7554-5-3">
      <feBlend
         mode="darken"
         in2="BackgroundImage"
         id="feBlend7556-4-4" />
    </filter>
    <filter
       id="filter7554-6-8"
       style="color-interpolation-filters:sRGB">
      <feBlend
         mode="darken"
         in2="BackgroundImage"
         id="feBlend7556-6-4" />
    </filter>
    <filter
       style="color-interpolation-filters:sRGB"
       id="filter7554-7-7">
      <feBlend
         mode="darken"
         in2="BackgroundImage"
         id="feBlend7556-0-2" />
    </filter>
    <filter
       style="color-interpolation-filters:sRGB"
       id="filter7554-61">
      <feBlend
         mode="darken"
         in2="BackgroundImage"
         id="feBlend7556-98" />
    </filter>
    <filter
       id="filter7554-5-8"
       style="color-interpolation-filters:sRGB">
      <feBlend
         id="feBlend7556-4-6"
         in2="BackgroundImage"
         mode="darken" />
    </filter>
    <filter
       style="color-interpolation-filters:sRGB"
       id="filter7554-6-84">
      <feBlend
         id="feBlend7556-6-1"
         in2="BackgroundImage"
         mode="darken" />
    </filter>
    <filter
       id="filter7554-7-71"
       style="color-interpolation-filters:sRGB">
      <feBlend
         id="feBlend7556-0-3"
         in2="BackgroundImage"
         mode="darken" />
    </filter>
    <filter
       id="filter7554-35-2"
       style="color-interpolation-filters:sRGB">
      <feBlend
         id="feBlend7556-35-1"
         in2="BackgroundImage"
         mode="darken" />
    </filter>
    <filter
       style="color-interpolation-filters:sRGB"
       id="filter7554-5-9-1">
      <feBlend
         mode="darken"
         in2="BackgroundImage"
         id="feBlend7556-4-5-9" />
    </filter>
    <filter
       id="filter7554-6-3-8"
       style="color-interpolation-filters:sRGB">
      <feBlend
         mode="darken"
         in2="BackgroundImage"
         id="feBlend7556-6-2-4" />
    </filter>
    <filter
       style="color-interpolation-filters:sRGB"
       id="filter7554-2-7">
      <feBlend
         mode="darken"
         in2="BackgroundImage"
         id="feBlend7556-9-4" />
    </filter>
    <filter
       style="color-interpolation-filters:sRGB"
       id="filter7554-29-9">
      <feBlend
         mode="darken"
         in2="BackgroundImage"
         id="feBlend7556-3-2" />
    </filter>
    <filter
       style="color-interpolation-filters:sRGB"
       id="filter7554-0-9">
      <feBlend
         mode="darken"
         in2="BackgroundImage"
         id="feBlend7556-5-0" />
    </filter>
    <filter
       style="color-interpolation-filters:sRGB"
       id="filter7554-3-6">
      <feBlend
         mode="darken"
         in2="BackgroundImage"
         id="feBlend7556-48-5" />
    </filter>
    <filter
       id="filter7554-5-3-1"
       style="color-interpolation-filters:sRGB">
      <feBlend
         id="feBlend7556-4-4-5"
         in2="BackgroundImage"
         mode="darken" />
    </filter>
    <filter
       style="color-interpolation-filters:sRGB"
       id="filter7554-6-8-6">
      <feBlend
         id="feBlend7556-6-4-2"
         in2="BackgroundImage"
         mode="darken" />
    </filter>
    <filter
       id="filter7554-7-7-1"
       style="color-interpolation-filters:sRGB">
      <feBlend
         id="feBlend7556-0-2-4"
         in2="BackgroundImage"
         mode="darken" />
    </filter>
    <filter
       style="color-interpolation-filters:sRGB"
       id="filter7554-22">
      <feBlend
         mode="darken"
         in2="BackgroundImage"
         id="feBlend7556-01" />
    </filter>
    <filter
       id="filter7554-5-6"
       style="color-interpolation-filters:sRGB">
      <feBlend
         id="feBlend7556-4-2"
         in2="BackgroundImage"
         mode="darken" />
    </filter>
    <filter
       style="color-interpolation-filters:sRGB"
       id="filter7554-6-6">
      <feBlend
         id="feBlend7556-6-16"
         in2="BackgroundImage"
         mode="darken" />
    </filter>
    <filter
       id="filter7554-7-6"
       style="color-interpolation-filters:sRGB">
      <feBlend
         id="feBlend7556-0-1"
         in2="BackgroundImage"
         mode="darken" />
    </filter>
    <filter
       id="filter7554-35-9"
       style="color-interpolation-filters:sRGB">
      <feBlend
         id="feBlend7556-35-4"
         in2="BackgroundImage"
         mode="darken" />
    </filter>
    <filter
       style="color-interpolation-filters:sRGB"
       id="filter7554-5-9-0">
      <feBlend
         mode="darken"
         in2="BackgroundImage"
         id="feBlend7556-4-5-1" />
    </filter>
    <filter
       id="filter7554-6-3-7"
       style="color-interpolation-filters:sRGB">
      <feBlend
         mode="darken"
         in2="BackgroundImage"
         id="feBlend7556-6-2-3" />
    </filter>
    <filter
       style="color-interpolation-filters:sRGB"
       id="filter7554-2-0">
      <feBlend
         mode="darken"
         in2="BackgroundImage"
         id="feBlend7556-9-3" />
    </filter>
    <filter
       style="color-interpolation-filters:sRGB"
       id="filter7554-29-5">
      <feBlend
         mode="darken"
         in2="BackgroundImage"
         id="feBlend7556-3-0" />
    </filter>
    <filter
       style="color-interpolation-filters:sRGB"
       id="filter7554-0-4">
      <feBlend
         mode="darken"
         in2="BackgroundImage"
         id="feBlend7556-5-6" />
    </filter>
    <filter
       style="color-interpolation-filters:sRGB"
       id="filter7554-3-8">
      <feBlend
         mode="darken"
         in2="BackgroundImage"
         id="feBlend7556-48-4" />
    </filter>
    <filter
       id="filter7554-5-3-0"
       style="color-interpolation-filters:sRGB">
      <feBlend
         id="feBlend7556-4-4-0"
         in2="BackgroundImage"
         mode="darken" />
    </filter>
    <filter
       style="color-interpolation-filters:sRGB"
       id="filter7554-6-8-64">
      <feBlend
         id="feBlend7556-6-4-9"
         in2="BackgroundImage"
         mode="darken" />
    </filter>
    <filter
       id="filter7554-7-7-9"
       style="color-interpolation-filters:sRGB">
      <feBlend
         id="feBlend7556-0-2-0"
         in2="BackgroundImage"
         mode="darken" />
    </filter>
  </defs>
  <path
     style="clip-rule:evenodd;fill:#202020;fill-opacity:1;fill-rule:evenodd;stroke-width:1.16666663;stroke-linejoin:round;stroke-miterlimit:1.41420996"
     d="M 2.5,5 C 0.5,5 0,5.5 0,7.5 v 8 c 0,2 0.5,2.5 2.5,2.5 H 8 V 17 H 2.5 C 1,17 1,17 1,15.5 v -8 C 1,6 1,6 2.5,6 h 6 L 9,5 Z m 8,0 -3.5,7.5 h 4 L 10,18 h 0.5 L 14,10.5 H 10 L 11,5 Z m 2,0 v 1 h 6 C 20,6 20,6 20,7.5 v 8 C 20,17 20,17 18.5,17 h -6 L 12,18 h 7 c 1.5,0 2,-0.5 2,-2.5 v -8 C 21,5.5 20.5,5 19,5 Z m -10,2.5 v 8 h 6 L 9,14 H 4.5 l 3,-6.5 z m 10,0 L 12,9 h 4.5 l -3,6.5 h 5 v -8 z M 22,9 v 5 c 2.5,0 2.5,-5 0,-5 z"
     id="path2-7"
     inkscape:connector-curvature="0"
     sodipodi:nodetypes="ssssccssssccscccccccccccssssccsssscccccccccccccccccc" />
  <g
     style="fill:#ffffff;fill-opacity:1;stroke:none;stroke-opacity:1;enable-background:new"
     id="g908"
     transform="translate(-1,-1)" />
</svg>
